src/ui/notification-badge.svg

<svg xmlns="http://www.w3.org/2000/svg" viewBox="0 0 16 16">
  <path d="M8 3.12a.75.75 0 0 0 0-1.5.75.75 0 0 0 0 1.5Zm5 8.79-1-2.4v-.84a.58.58 0 0 0-1.15 0v.95a.54.54 0 0 0 0 .22l.69 1.71h-7.2L5 9.84a.54.54 0 0 0 0-.22v-2A2.92 2.92 0 0 1 9 4.9a.57.57 0 1 0 .41-1.07A4 4 0 0 0 8 3.55a4.08 4.08 0 0 0-4.08 4.07v1.89l-1 2.4a.58.58 0 0 0 .06.54.57.57 0 0 0 .48.25h2.47v.17a2.08 2.08 0 1 0 4.15 0s0-.11 0-.17h2.42a.56.56 0 0 0 .47-.25.58.58 0 0 0 .03-.54ZM8 13.8a.93.93 0 0 1-.93-.93 1.22 1.22 0 0 1 0-.17h1.82a1 1 0 0 1 0 .17.93.93 0 0 1-.89.93Z"/>
</svg>

<svg id="b274bf75-7c26-4a46-997a-80f9d188b144" data-name="Icons" xmlns="http://www.w3.org/2000/svg" viewBox="0 0 16 16"><path d="M8,3.12a.75.75,0,0,0,0-1.5.75.75,0,0,0,0,1.5Zm5,8.79-1-2.4V8.67a.58.58,0,0,0-1.15,0v.95a.54.54,0,0,0,0,.22l.69,1.71H4.34L5,9.84a.54.54,0,0,0,0-.22v-2A2.92,2.92,0,0,1,9,4.9a.57.57,0,1,0,.41-1.07A4,4,0,0,0,8,3.55,4.08,4.08,0,0,0,3.92,7.62V9.51l-1,2.4a.58.58,0,0,0,.06.54.57.57,0,0,0,.48.25H5.93c0,.06,0,.12,0,.17a2.08,2.08,0,1,0,4.15,0s0-.11,0-.17H12.5a.56.56,0,0,0,.47-.25A.58.58,0,0,0,13,11.91ZM8,13.8a.93.93,0,0,1-.93-.93,1.22,1.22,0,0,1,0-.17H8.89a1,1,0,0,1,0,.17A.93.93,0,0,1,8,13.8Z"/></svg>
